atari7800/art/system.svg

<?xml version="1.0" encoding="utf-8"?>
<!-- Generator: Adobe Illustrator 24.0.3, SVG Export Plug-In . SVG Version: 6.00 Build 0)  -->
<svg version="1.1" id="Ebene_1" xmlns="http://www.w3.org/2000/svg" xmlns:xlink="http://www.w3.org/1999/xlink" x="0px" y="0px"
	 viewBox="0 0 362.7 72.6" style="enable-background:new 0 0 362.7 72.6;" xml:space="preserve">
<style type="text/css">
	.st0{fill:#93D4EF;}
	.st1{fill:#AD0E0E;}
</style>
<g>
	<path class="st0" d="M10.7,36.5c1.4-1.8,4.4-2.2,6.2-0.6c0.7,0.6,1.2,1.5,1.5,2.4c3.3,11.3,6.6,22.6,9.9,33.9c-1.9,0-3.9,0-5.8,0
		c-0.9-3.1-1.8-6.2-2.7-9.4c-3.7,0-7.5,0-11.2,0c-0.9,3.1-1.8,6.2-2.7,9.4c-1.9,0-3.9,0-5.8,0c3.1-10.8,6.2-21.6,9.4-32.3
		C9.8,38.6,9.9,37.4,10.7,36.5 M14.1,43.4c-1.4,4.7-2.7,9.4-4.1,14.1c2.7,0,5.4,0,8.2,0C16.8,52.8,15.5,48.1,14.1,43.4z"/>
	<path class="st0" d="M51.5,36.7c1-1.5,3-2.2,4.7-1.7c1.6,0.4,2.8,1.7,3.2,3.2c3.3,11.3,6.6,22.6,9.9,33.9c-1.9,0-3.9,0-5.8,0
		c-0.9-3.1-1.8-6.2-2.7-9.4c-3.7,0-7.5,0-11.2,0c-0.9,3.1-1.8,6.2-2.7,9.4c-1.9,0-3.9,0-5.8,0c3.1-10.8,6.3-21.7,9.4-32.5
		C50.8,38.6,50.9,37.6,51.5,36.7 M51.1,57.4c2.7,0,5.4,0,8.1,0c-1.3-4.7-2.7-9.4-4.1-14.1C53.8,48.1,52.4,52.8,51.1,57.4z"/>
	<path class="st0" d="M23.9,34.9c7,0,14,0,21,0c0,1.9,0,3.8,0,5.7c-2.6,0-5.2,0-7.7,0c0,10.5,0,21,0,31.5c-1.8,0-3.7,0-5.5,0
		c0-10.5,0-21,0-31.5c-2.6,0-5.2,0-7.7,0C23.9,38.7,23.9,36.8,23.9,34.9z"/>
	<path class="st0" d="M75.4,35.2c0.5-0.2,1.1-0.2,1.7-0.2c2.2,0,4.4,0,6.6,0c3.7,0.1,7.3,2.4,8.9,5.7c1.1,2.2,1.2,4.7,0.9,7.1
		c-0.2,2.5-1.2,5-3.2,6.7c-1,0.9-2.3,1.5-3.4,2.3c-0.6,0.5-0.6,1.3-0.3,2c2.9,4.5,6,9,9,13.5c-2.2,0-4.4,0-6.6,0
		c-2.9-4.3-5.7-8.6-8.6-13c-0.8-1.2-1.1-2.9-0.6-4.3c0.4-1.1,1.3-1.9,2.4-2.3c2-0.8,4-2,5.1-3.8c0.8-1.4,0.8-3.2,0.4-4.7
		c-0.4-2-2.4-3.6-4.5-3.5c-1.4,0-2.9,0-4.3,0c-0.6,0-1.3,0.5-1.2,1.2c0,10.1,0,20.2,0,30.3c-1.9,0-3.7,0-5.6,0c0-10.9,0-21.8,0-32.7
		C72.3,37.5,73.6,35.7,75.4,35.2z"/>
	<path class="st0" d="M98.6,34.9c2,0,3.9,0,5.9,0c0,12.4,0,24.8,0,37.2c-2,0-3.9,0-5.9,0C98.6,59.7,98.6,47.3,98.6,34.9z"/>
</g>
<path class="st1" d="M224.6,34.3c5.3-3.1,8.6-8.4,8.6-14.2C233.2,6.3,218.6,0,205,0c-13.6,0-28.1,6.3-28.1,20.1
	c0,5.9,3.3,11.1,8.6,14.2c-7.5,3.5-11.7,9.4-11.7,16.8c0,13.9,15.7,21.2,31.3,21.2s31.3-7.3,31.3-21.2
	C236.3,43.7,232.1,37.8,224.6,34.3z M205,25.6c-3.5,0-6.3-2.2-6.3-5s2.8-5,6.3-5c3.5,0,6.3,2.2,6.3,5
	C211.3,23.3,208.5,25.6,205,25.6z M205,43.3c3.8,0,7,2.6,7,5.7c0,3.1-3.1,5.6-7,5.6c-3.9,0-7-2.5-7-5.6
	C198.1,45.9,201.2,43.3,205,43.3z"/>
<path class="st1" d="M291,11.8C285.2,4.1,276.7,0,266.4,0c-10.3,0-18.8,4.1-24.5,11.8c-4.9,6.5-7.5,15.2-7.5,24.5
	c0,18.1,9.9,36.3,32.1,36.3c22.1,0,32.1-18.2,32.1-36.3C298.5,26.9,295.8,18.2,291,11.8z M266.4,51.1c-7.7,0-8.6-10-8.6-14.9
	c0-4.8,0.8-14.7,8.6-14.7c7.7,0,8.6,9.9,8.6,14.7C275,41,274.2,51.1,266.4,51.1z"/>
<path class="st1" d="M355.1,11.8C349.4,4.1,340.9,0,330.6,0c-10.3,0-18.8,4.1-24.5,11.8c-4.9,6.5-7.5,15.2-7.5,24.5
	c0,18.1,9.9,36.3,32.1,36.3c22.1,0,32.1-18.2,32.1-36.3C362.7,26.9,360,18.2,355.1,11.8z M330.6,51.1c-7.7,0-8.6-10-8.6-14.9
	c0-4.8,0.8-14.7,8.6-14.7s8.6,9.9,8.6,14.7C339.2,41,338.3,51.1,330.6,51.1z"/>
<polygon class="st1" points="119.2,1 119.2,23 149.4,23 126.9,72.2 152.4,72.2 182.6,1 "/>
</svg>

<svg id="Ebene_1" data-name="Ebene 1" xmlns="http://www.w3.org/2000/svg" viewBox="0 0 362.7 72.6"><title>system</title><path d="M10.7,36.5a4.42,4.42,0,0,1,6.2-.6,5.45,5.45,0,0,1,1.5,2.4l9.9,33.9H22.5c-.9-3.1-1.8-6.2-2.7-9.4H8.6c-.9,3.1-1.8,6.2-2.7,9.4H.1C3.2,61.4,6.3,50.6,9.5,39.9c.3-1.3.4-2.5,1.2-3.4m3.4,6.9c-1.4,4.7-2.7,9.4-4.1,14.1h8.2C16.8,52.8,15.5,48.1,14.1,43.4Z" transform="translate(-0.1 0)" style="fill:#93d4ef"/><path d="M51.5,36.7A4.33,4.33,0,0,1,56.2,35a4.5,4.5,0,0,1,3.2,3.2l9.9,33.9H63.5c-.9-3.1-1.8-6.2-2.7-9.4H49.6c-.9,3.1-1.8,6.2-2.7,9.4H41.1c3.1-10.8,6.3-21.7,9.4-32.5a10,10,0,0,1,1-2.9m-.4,20.7h8.1c-1.3-4.7-2.7-9.4-4.1-14.1C53.8,48.1,52.4,52.8,51.1,57.4Z" transform="translate(-0.1 0)" style="fill:#93d4ef"/><path d="M23.9,34.9h21v5.7H37.2V72.1H31.7V40.6H24C23.9,38.7,23.9,36.8,23.9,34.9Z" transform="translate(-0.1 0)" style="fill:#93d4ef"/><path d="M75.4,35.2a4.68,4.68,0,0,1,1.7-.2h6.6a10.45,10.45,0,0,1,8.9,5.7,12.34,12.34,0,0,1,.9,7.1,9.7,9.7,0,0,1-3.2,6.7,40.47,40.47,0,0,1-3.4,2.3,1.65,1.65,0,0,0-.3,2c2.9,4.5,6,9,9,13.5H89c-2.9-4.3-5.7-8.6-8.6-13a5,5,0,0,1-.6-4.3,3.91,3.91,0,0,1,2.4-2.3,10.31,10.31,0,0,0,5.1-3.8,6.38,6.38,0,0,0,.4-4.7,4.52,4.52,0,0,0-4.5-3.5H78.9a1.16,1.16,0,0,0-1.2,1.2V72.2H72.1V39.5A4.89,4.89,0,0,1,75.4,35.2Z" transform="translate(-0.1 0)" style="fill:#93d4ef"/><path d="M98.6,34.9h5.9V72.1H98.6Z" transform="translate(-0.1 0)" style="fill:#93d4ef"/><path d="M224.6,34.3a16.59,16.59,0,0,0,8.6-14.2C233.2,6.3,218.6,0,205,0s-28.1,6.3-28.1,20.1c0,5.9,3.3,11.1,8.6,14.2-7.5,3.5-11.7,9.4-11.7,16.8,0,13.9,15.7,21.2,31.3,21.2s31.3-7.3,31.3-21.2C236.3,43.7,232.1,37.8,224.6,34.3ZM205,25.6c-3.5,0-6.3-2.2-6.3-5s2.8-5,6.3-5,6.3,2.2,6.3,5S208.5,25.6,205,25.6Zm0,17.7c3.8,0,7,2.6,7,5.7s-3.1,5.6-7,5.6-7-2.5-7-5.6S201.2,43.3,205,43.3Z" transform="translate(-0.1 0)" style="fill:#ad0e0e"/><path d="M291,11.8C285.2,4.1,276.7,0,266.4,0s-18.8,4.1-24.5,11.8c-4.9,6.5-7.5,15.2-7.5,24.5,0,18.1,9.9,36.3,32.1,36.3s32.1-18.2,32.1-36.3C298.5,26.9,295.8,18.2,291,11.8ZM266.4,51.1c-7.7,0-8.6-10-8.6-14.9s.8-14.7,8.6-14.7,8.6,9.9,8.6,14.7S274.2,51.1,266.4,51.1Z" transform="translate(-0.1 0)" style="fill:#ad0e0e"/><path d="M355.1,11.8C349.4,4.1,340.9,0,330.6,0s-18.8,4.1-24.5,11.8c-4.9,6.5-7.5,15.2-7.5,24.5,0,18.1,9.9,36.3,32.1,36.3s32.1-18.2,32.1-36.3C362.7,26.9,360,18.2,355.1,11.8ZM330.6,51.1c-7.7,0-8.6-10-8.6-14.9s.8-14.7,8.6-14.7,8.6,9.9,8.6,14.7S338.3,51.1,330.6,51.1Z" transform="translate(-0.1 0)" style="fill:#ad0e0e"/><polygon points="119.1 1 119.1 23 149.3 23 126.8 72.2 152.3 72.2 182.5 1 119.1 1" style="fill:#ad0e0e"/></svg>
